X:1
T:Akolo, 88.89 D
T:Akolo, 88.89 D
T:Arranged by William J. Kirkpatrick (1838-1921)
T:Public Domain Courtesy of the Cyber Hymnal™
C:Arranged by William J. Kirkpatrick (1838-1921)
Z:Public Domain
Z:Courtesy of the Cyber Hymnal™
%%score ( 1 2 ) 3
L:1/8
Q:1/4=100
M:6/8
K:G
V:1 treble 
V:2 treble 
V:3 bass 
V:1
 [DG]2 [DA] | [GB]2 [GB] [Gc]2 [GB] | [GB] [FA]2 [DF]2 G | [FA]2 [FA] [GB]2 [DA] | %4
 [DA] [DG]2 [DG]2 [DA] | [GB]2 [GB] [GB]2 [=Fd] | [Ed] [Ec]2 [EG]2 [_EA] | %7
[M:9/8] [DB] [B,D]2 [DB] [B,D]2 !fermata![CA]2 [B,G] | [B,G]6 |[M:6/8] [DG]2 [FA] | %10
 [GB]2 [GB] [Fc]2 [GB] | [FB] [FA]2 [DF]2 [DG] | [DA]2 [DA] [DB]2 [DA] | [CA] [B,G]2 [DG]2 [FA] | %14
 [GB]2 [GB] [GB]2 [=Fd] | [Ed] [Ec]2 [EG]2 [EA] |[M:9/8] [DB] [B,D]2 [DB] [B,D]2 [FA]2 G | G6 |] %18
V:2
 x3 | x6 | x5 G | x6 | x6 | x6 | x6 |[M:9/8] x9 | x6 |[M:6/8] x3 | x6 | x6 | x6 | x6 | x6 | x6 | %16
[M:9/8] x8 G | G6 |] %18
V:3
 [G,B,]2 [G,C] | [G,D]2 [G,D] [G,E]2 [G,D] | [D,D] [D,D]2 [D,A,]2 [D,B,] | %3
 [D,C]2 [D,C] [D,D]2 [D,C] | [G,C] [G,B,]2 [G,B,]2 [G,C] | [G,D]2 [G,D] [G,D]2 [B,,G,] | %6
 [C,G,] [C,G,]2 [C,G,]2 [C,G,] |[M:9/8] [D,G,] [D,G,]2 [D,G,] [D,G,]2 !fermata![D,F,]2 [D,G,] | %8
 [G,,D,G,]6 |[M:6/8] [B,,G,]2 [D,D] | [G,D]2 [G,D] [A,D]2 [G,D] | [D,D] [D,D]2 [D,A,]2 [B,,G,] | %12
 [A,,F,]2 [A,,F,] [G,,G,]2 [D,F,] | [D,F,] [G,,G,]2 [B,,G,]2 [D,D] | [G,D]2 [G,D] [E,E]2 [B,,G,] | %15
 [C,G,] [C,G,]2 [C,G,]2 [C,G,] |[M:9/8] [D,G,] [D,G,]2 [D,G,] [D,G,]2 [D,C]2 [G,,G,B,] | %17
 [G,,G,B,]6 |] %18

